images/email.svg

<svg xmlns="http://www.w3.org/2000/svg" width="256.3" height="180.4" viewBox="210.8 483.2 256.3 180.4" enable-background="new 210.8 483.2 256.3 180.4"><style type="text/css">.st0{fill:#FFFFFF;}</style><path class="st0" d="M215.5 640.9v-137.9c0-.2.2-1.7.7-4.5l81.2 69.4-80.9 77.8c-.7-2.2-1-3.8-1-4.8zm10.8-152c1.1-.5 2.5-.7 4.1-.7h218.6c1.4 0 2.9.2 4.3.7l-81.4 69.7-10.8 8.6-21.3 17.5-21.3-17.5-10.8-8.6-81.4-69.7zm.2 166.1l81.6-78.3 31.6 25.6 31.6-25.6 81.7 78.3c-1.3.5-2.6.7-4.1.7h-218.6c-1.3.1-2.5-.2-3.8-.7zm155.6-87.1l80.9-69.4c.5 1.4.7 3 .7 4.5v137.9c0 1.4-.2 3-.7 4.8l-80.9-77.8z"/></svg>

<?xml version="1.0" encoding="utf-8"?>
<!-- Generator: Adobe Illustrator 20.1.0, SVG Export Plug-In . SVG Version: 6.00 Build 0)  -->
<!DOCTYPE svg PUBLIC "-//W3C//DTD SVG 1.1//EN" "http://www.w3.org/Graphics/SVG/1.1/DTD/svg11.dtd">
<svg version="1.1" id="Layer_1" xmlns="http://www.w3.org/2000/svg" xmlns:xlink="http://www.w3.org/1999/xlink" x="0px" y="0px"
	 width="256.3px" height="180.4px" viewBox="210.8 483.2 256.3 180.4" style="enable-background:new 210.8 483.2 256.3 180.4;"
	 xml:space="preserve">
<style type="text/css">
	.st0{fill:#FFFFFF;}
</style>
<path class="st0" d="M215.5,640.9V503c0-0.2,0.2-1.7,0.7-4.5l81.2,69.4l-80.9,77.8C215.8,643.5,215.5,641.9,215.5,640.9z
	 M226.3,488.9c1.1-0.5,2.5-0.7,4.1-0.7h218.6c1.4,0,2.9,0.2,4.3,0.7l-81.4,69.7l-10.8,8.6l-21.3,17.5l-21.3-17.5l-10.8-8.6
	L226.3,488.9z M226.5,655l81.6-78.3l31.6,25.6l31.6-25.6L453,655c-1.3,0.5-2.6,0.7-4.1,0.7H230.3C229,655.8,227.8,655.5,226.5,655z
	 M382.1,567.9l80.9-69.4c0.5,1.4,0.7,3,0.7,4.5v137.9c0,1.4-0.2,3-0.7,4.8L382.1,567.9z"/>
</svg>
